X:16
T:Dream Waltz
M:3/4
L:1/4
C:Taz Tarry, 16th September 2010
Q:1/4=160
K:D
E>F G|A Bc|df d|A2 A|Bg e|c2 B|Aa f|g2 e|
E>F G|A Bc|df d|A2 A|Bg e|c Bc|d3/2 d/2 d|d2 d|]
Ag e|c2 B|Aa f|g2 f|Bg e|d cd|f>e d|c BA|
E>F G|A Bc|df d|A2 A|Bg e|c Bc|d3/2 d/2 d|d2 d|]

